X:1
T:Trumpet Concerto (3rd mvt theme)
C:Joseph Haydn
M:2/4
L:1/8
Q:1/4=132
K:Eb
% Rondo theme — Hob.VIIe:1, 3rd mvt (Allegro)
G |: B3 e | edcB | B2 AG | G4 |\
     B3 e | edcB | cBAB | G4 :|\
     Bcde | e2 dc | BAGB | G2 B2 |\
     Bcde | e2 dc | dcBA | G4 |]
